X:1
T:Mon desir
T:Mon desir
T:(Basse dansse 10)
T:Tielman Susato
C:Tielman Susato
%%score 1 2 3 4
L:1/8
M:4/2
K:C
V:1 treble 
V:2 treble 
V:3 treble 
V:4 treble 
V:1
 C2 B,2 C2 D2 C4 D4 | E4 C4 C4 G4 | F4 F2 E2 D2 E2 F2 D2 | E8 z8 | D2 C2 D2 E2 D4 E4 | %5
 C4 C4 C4 B,2 C2 | D2 C2 B,2 A,2 B,2 C2 D2 B,2 | C8 z8 :: C2 B,2 C2 D2 C2 D2 E2 F2 | G8 z4 G4 | %10
 A4 A2 G2 ^F2 G2 A2 F2 | G8 z8 :: z4 A2 B2 c4 B4 | c4 A4 G8 | z4 A2 B2 c4 B4 | c4 A4 G8 | %16
 z4 A2 B2 c4 B4 | c4 A4 G8 | z4 F4 E4 D2 C2 | B,2 C2 D2 B,2 C8 :: z8 E2 D2 E2 F2 | %21
 E2 F2 G2 E2 F4 E4 | D4 C4 B,2 C2 D2 C2 | B,2 A,2 B,4 C8 :| %24
V:2
 G,8 A,4 B,4 | C4 G,4 A,4 B,4 | D6 CB, A,6 B,2 | C8 z8 | B,12 C4 | C4 A,4 A,4 G,4 | A,4 F,4 G,8 | %7
 E,8 z8 :: A,6 G,F, E,4 C4 | B,8 z4 E4 | F4 E4 D8 | B,8 z8 :: z4 D4 E4 E4 | C6 D2 E8 | %14
 z4 E4 E4 E4 | C6 D2 E8 | z4 E4 E4 E4 | C6 D2 E8 | z4 C4 C4 A,4 | G,8 G,8 :: z8 C8 | C4 C4 C6 B,2 | %22
 A,8 G,8 | G,8 E,8 :| %24
V:3
 E,12 F,4 | G,4 E,4 E,4 G,4 | A,6 G,2 F,2 G,2 E,2 F,2 | G,8 z8 | G,12 G,4 | %5
 A,6 G,2 F,2 E,2 D,2 E,2 | F,2 E,2 D,2 C,2 D,8 | C,8 z8 :: E,8 A,4 A,4 | G,8 z4 C4 | C6 B,2 A,8 | %11
 G,8 z8 :: z4 A,4 A,4 G,4 | A,2 B,2 C2 A,2 B,8 | z4 C4 C4 G,4 | A,2 B,2 C2 A,2 B,8 | z4 C4 C4 G,4 | %17
 A,2 B,2 C2 A,2 B,8 | z4 A,4 G,4 F,2 E,2 | D,8 C,8 :: z8 G,8- | G,4 G,4 A,6 G,2 | F,4 E,4 D,4 E,4 | %23
 D,8 C,8 :| %24
V:4
 C,8 A,,4 D,4 | C,6 B,,2 A,,4 G,,4 | D,12 D,4 | C,8 z8 | G,,8 G,,4 C,4 | F,,8 F,,4 G,,4 | %6
 F,,4 A,,4 G,,8 | C,8 z8 :: A,,12 A,,4 | E,8 z4 C,4 | F,4 C,4 D,8 | G,,8 z8 :: z4 D,4 A,,4 E,4 | %13
 A,,8 E,8 | z4 A,,4 A,,4 E,4 | A,,8 E,8 | z4 A,,4 A,,4 E,4 | A,,8 E,8 | z4 F,4 C,4 D,4 | %19
 G,,8 C,8 :: z8 C,8 | C,4 C,4 F,,8 | F,,4 F,,4 G,,8 | G,,8 C,8 :| %24

